moodify-client/public/heart-green.svg

<?xml version="1.0" encoding="utf-8"?>
<svg version="1.1" id="Capa_1" x="0px" y="0px" viewBox="0 0 471.701 471.701" style="enable-background:new 0 0 471.701 471.701;" xmlns="http://www.w3.org/2000/svg">
  <g>
    <path d="M433.601,67.001c-24.7-24.7-57.4-38.2-92.3-38.2s-67.7,13.6-92.4,38.3l-12.9,12.9l-13.1-13.1 c-24.7-24.7-57.6-38.4-92.5-38.4c-34.8,0-67.6,13.6-92.2,38.2c-24.7,24.7-38.3,57.5-38.2,92.4c0,34.9,13.7,67.6,38.4,92.3 l187.8,187.8c2.6,2.6,6.1,4,9.5,4c3.4,0,6.9-1.3,9.5-3.9l188.2-187.5c24.7-24.7,38.3-57.5,38.3-92.4 C471.801,124.501,458.301,91.701,433.601,67.001z M414.401,232.701l-178.7,178l-178.3-178.3c-19.6-19.6-30.4-45.6-30.4-73.3 s10.7-53.7,30.3-73.2c19.5-19.5,45.5-30.3,73.1-30.3c27.7,0,53.8,10.8,73.4,30.4l22.6,22.6c5.3,5.3,13.8,5.3,19.1,0l22.4-22.4 c19.6-19.6,45.7-30.4,73.3-30.4c27.6,0,53.6,10.8,73.2,30.3c19.6,19.6,30.3,45.6,30.3,73.3 C444.801,187.101,434.001,213.101,414.401,232.701z" style="fill: rgb(29, 185, 84);"/>
  </g>
  <g/>
  <g/>
  <g/>
  <g/>
  <g/>
  <g/>
  <g/>
  <g/>
  <g/>
  <g/>
  <g/>
  <g/>
  <g/>
  <g/>
  <g/>
</svg>

<?xml version="1.0" encoding="UTF-8" standalone="no"?>
<!DOCTYPE svg PUBLIC "-//W3C//DTD SVG 1.1//EN" "http://www.w3.org/Graphics/SVG/1.1/DTD/svg11.dtd">
<svg width="100%" height="100%" viewBox="0 0 1966 1728" version="1.1" xmlns="http://www.w3.org/2000/svg" xmlns:xlink="http://www.w3.org/1999/xlink" xml:space="preserve" xmlns:serif="http://www.serif.com/" style="fill-rule:evenodd;clip-rule:evenodd;stroke-linejoin:round;stroke-miterlimit:2;">
    <g transform="matrix(1,0,0,1,-68.6016,-187.354)">
        <g transform="matrix(1.37634,0,0,1.37634,-484.366,-1289.52)">
            <g transform="matrix(3.02735,0,0,3.02735,401.765,986.765)">
                <path d="M433.601,67.001C408.901,42.301 376.201,28.801 341.301,28.801C306.401,28.801 273.601,42.401 248.901,67.101L236.001,80.001L222.901,66.901C198.201,42.201 165.301,28.501 130.401,28.501C95.601,28.501 62.801,42.101 38.201,66.701C13.501,91.401 -0.099,124.201 0.001,159.101C0.001,194.001 13.701,226.701 38.401,251.401L226.201,439.201C228.801,441.801 232.301,443.201 235.701,443.201C239.101,443.201 242.601,441.901 245.201,439.301L433.401,251.801C458.101,227.101 471.701,194.301 471.701,159.401C471.801,124.501 458.301,91.701 433.601,67.001ZM414.401,232.701L235.701,410.701L57.401,232.401C37.801,212.801 27.001,186.801 27.001,159.101C27.001,131.401 37.701,105.401 57.301,85.901C76.801,66.401 102.801,55.601 130.401,55.601C158.101,55.601 184.201,66.401 203.801,86.001L226.401,108.601C231.701,113.901 240.201,113.901 245.501,108.601L267.901,86.201C287.501,66.601 313.601,55.801 341.201,55.801C368.801,55.801 394.801,66.601 414.401,86.101C434.001,105.701 444.701,131.701 444.701,159.401C444.801,187.101 434.001,213.101 414.401,232.701Z" style="fill:rgb(29,175,81);fill-rule:nonzero;"/>
            </g>
            <g transform="matrix(0.726565,0,0,0.726565,351.923,936.923)">
                <path d="M1051.31,502.928C1051.31,502.928 750.272,61.383 342.121,339.668C-66.03,617.953 46.27,939.36 1051.31,1853.54C1051.31,1853.54 2338.35,839.734 1848.57,411.57C1358.79,-16.594 1114.88,477.013 1051.31,502.928Z" style="fill:rgb(29,175,81);"/>
            </g>
        </g>
    </g>
</svg>
